X: 9266
T: Danbury Hill
R: jig
M: 6/8
K: Dminor
|:FE|DFA B2 A|GEC A2 G|FEF GFE|DED ^C=B,A,|
DFA B2 A|GEC A2 G|FEF GFE|1 D3- D:|2 D3- D2||
|:d-|dD_d =DcD|_cDB A3|ABA G2 E|ABA G2 E|
dD_d =DcD|_cDB A3|ABA GFE|1 D3- D2:|2 D3- D||

